X:1
T:Title
%%score ( 1 2 3 ) { 4 | 5 }
L:1/8
Q:1/4=100
M:4/4
K:F
V:1 treble nm="Grand Piano"
V:2 treble 
V:3 treble 
V:4 bass nm="Grand Piano"
V:5 bass 
V:1
 z4 z2 [A,C]2 | z4 z2 c2 | B4 z4 | [DF]2 [EG]2 [FA]2 .[EG].[DF] | [EG]6 [A,C]2 | z4 z2 c2 | B4 z4 | %7
 [DF]2 [EG]2 [FA]2 .[EG].[DF] | [EG]6 [EG]2 | [DG]2 [EG]2 [FA]2 [EG]2 | [DF]2 [DG]2 [^CE]2 D2 | %11
 [DF]2 [EG]2 [FA]2 [FB]2 | [FA]4 [EG]4 | [Fc]4 [FB]2 [EG]2 | A4 G4 | F6 z2 |] %16
V:2
 x8 | [DF]2 [EG]2 [FA]2 F2- | F2 E2 [FA]2 [EG]2 | x8 | x8 | [DF]2 [EG]2 [FA]2 F2- | %6
 F2 E2 [FA]2 [EG]2 | x8 | x8 | x8 | x8 | x8 | x8 | x8 | z2 F4 z2 | x8 |] %16
V:3
 x8 | x8 | x8 | x8 | x8 | x8 | x8 | x8 | x8 | x8 | x8 | x8 | x8 | x8 | C2 z2 z2 E2 | x8 |] %16
V:4
 z4 z2 F,2 | A,2 C2 C2 A,2 | D2 .CB, C2 C2 | A,2 C2 C2 C2 | C6[K:bass] F,2 | A,2 C2 C2 A,2 | %6
 D2 .CB, C2 C2 | A,2 C2 C2 C2 | C6 C2 | =B,2 C2 C2 C2 | A,2 B,2 A,2 F,2 | A,2[K:treble] C2 C2 D2 | %12
 C4 C4 | C4 D2 C2 | A,2 C2 C4 | C6 z2 |] %16
V:5
 z8 | D,2 C,2 F,2 F,2 | G,4 F,2 C,2 | D,2 C,2 F,2 F,2 | C,6 z2 | D,2 C,2 F,2 F,2 | G,4 F,2 C,2 | %7
 D,2 C,2 F,2 F,2 | C,6 C,2 | G,2 C,2 F,2 C,2 | D,2 G,,2 A,,2 D,2 | D,2 C,2 F,2 B,,2 | F,4 C,4 | %13
 A,,4 B,,2 C,2 | F,4 C,4 | F,6 z2 |] %16

